X:01
T: Wallace & Gromit
M:C|
L:1/8
C: Julian Nott
S: Noel <noelbats@onetel.com> tradtunes 2010-12-3
K: G
Z3|d2cB d2cB|d2 A6| ede f2 edc|B4-B4|\
d2cB d2cB| d2 A6| ede f2 e f2| g4-g:|
gfe| g2fe2 gfe|g2ed2 ddd|ed ed B<ABA/B/|B4-B B^AB|\
B2AF2B^AB|A2GE2 EGE| EE2E GEGB|d4-d4|
|d2cB d2cB|d2 A6| ede f2 edc|B4-B4|\
d2cB d2cB| d2 A6| ede f2 e f2| g4-g|]
